fs/text_first_line_20_regular.svg

<svg viewBox="0 0 20 20" fill="none" xmlns="http://www.w3.org/2000/svg" height="1em" width="1em">
  <path d="M16.6464 3.14645C16.8417 2.95118 17.1583 2.95118 17.3536 3.14645C17.5488 3.34171 17.5488 3.65829 17.3536 3.85355L16.2071 5L17.3536 6.14645C17.5488 6.34171 17.5488 6.65829 17.3536 6.85355C17.1583 7.04882 16.8417 7.04882 16.6464 6.85355L15.1464 5.35355C14.9512 5.15829 14.9512 4.84171 15.1464 4.64645L16.6464 3.14645ZM12.5 4C12.7761 4 13 4.22386 13 4.5C13 4.77614 12.7761 5 12.5 5H2.5C2.22386 5 2 4.77614 2 4.5C2 4.22386 2.22386 4 2.5 4H12.5ZM17.5 14C17.7761 14 18 14.2239 18 14.5C18 14.7761 17.7761 15 17.5 15H2.5C2.22386 15 2 14.7761 2 14.5C2 14.2239 2.22386 14 2.5 14H17.5ZM18 9.5C18 9.22386 17.7761 9 17.5 9H2.5C2.22386 9 2 9.22386 2 9.5C2 9.77614 2.22386 10 2.5 10H17.5C17.7761 10 18 9.77614 18 9.5Z" fill="#212121"/>
</svg>

<svg viewBox="0 0 20 20" fill="none" xmlns="http://www.w3.org/2000/svg" height="1em" width="1em">
  <path d="M16.646 3.146a.5.5 0 0 1 .708.708L16.207 5l1.147 1.146a.5.5 0 0 1-.708.708l-1.5-1.5a.5.5 0 0 1 0-.708l1.5-1.5ZM12.5 4a.5.5 0 0 1 0 1h-10a.5.5 0 0 1 0-1h10Zm5 10a.5.5 0 0 1 0 1h-15a.5.5 0 0 1 0-1h15Zm.5-4.5a.5.5 0 0 0-.5-.5h-15a.5.5 0 0 0 0 1h15a.5.5 0 0 0 .5-.5Z" fill="#212121"/>
</svg>
